!!!COM: Hugo Wolf
!!!CNT: Deutscher
!!!TXO: Deutsche 
!!!OTL: Verborgenheit
!!!ONM: No. 12
!!!ODT: 1888/
!!!LYR: Moericke
!!!ENC: Brian Bice
!!!YOR: 65 Songs for voice and piano, International Music Compoany, 1960
!!NB: Vocal melody and text only encoded.
**kern	**silbe
*clefG2	*
*k[b-e-a-]	*
*M4/4	*
=3	=3
{4b-	{Lass,
4an	o
4.a-	Welt,
8f	o
=4	=4
4b-	lass
4cc	mich
2b-}	sein!}
=5	=5
{4b-	{lo-
4ee-	-cket
4.e-	nicht
8e-	miut
=6	=6
4.b-	Lie-
8g	-bes-
4f	-ga-
4f#}	-ben,}
=7	=7
{4b-	{lasst
4cc	dies
4.b-	Herz
8b-	al-
=8	=8
(8b-	-lei-
4dd)	|
8cc	-ne
4b-	ha-
4a-}	-ben}
=9	=9
{4g	{sei-
4b-	-ne
[2ee-	Won-
=10	=10
8ee-]	|
8g	-ne,
8.b-	sei-
16d	-ne
2e-}	Pein!}
=11	=11
8r	.
{4g	{Was
8g	ich
4g	trau-
4f#	-re,
=12	=12
4.cc	weiss
8cc	ich
(4cc	nicht,
4bn)}	|}
=13	=13
8r	.
{4cc	{es
8cc	ist
4.ee-	un-
8ee-	-be-
=14	=14
4dd	-kann-
4cc	-tes
4cc	We-
4bn}	-he;}
=15	=15
{4ff	{im-
4ee-	-mer-
4.dd	-dar
8cc	durch
=16	=16
4ff	Tra2-
4ee-	-nen
4.dd	se-
8cc}	-he}
=17	=17
{4b-	{ich
4b-	der
4.b-	Son-
8b-	-ne
=18	=18
(8b-	lie-
4a-)	|
8g-	-bes
2dd-}	Licht.}
=20	=20
{4f	{Oft
4f	bin
4f	ich
4f	mir
=21	=21
4.f	kaum
8cc	be-
(4cc	-wusst
4bn)	|
=22	=22
4b-	und
4b-	die
4.ee-	hel-
8ee-	-le
=23	=23
(4gg-	Freu-
8ff)	|
8ee-	-de
8ee-	zu2-
8dd}	-cket}
4r	.
=24	=24
8r	.
{4gg-	{durch
8an	die
8cc-	Schwe-
4b-	-re,
8r	.
=25	=25
8r	.
4ee-	so
8gg-	mich
8ff	dru2-
4.ee-	-cket,
=26	=26
4.ggn	won-
8ff	-nig-
8ee-	-lich
8b-	in
8g	mei-
8e-	-ner
=27	=27
2a-}	Brust.}
2r	.
=28	=28
{4b-	{Lass,
4an	o
4a-	Welt,
4f	o
=29	=29
4b-	lass
4cc	mich
2b-}	sein!}
=30	=30
{4b-	{lo-
4ee-	-cket
4.e-	nicht
8e-	mit
=31	=31
4.b-	Lie-
8g	-bes-
4f	-ga-
4f#}	-ben,}
=32	=32
{4b-	{lasst
4cc	dies
4.b-	Herz
8b-	al-
=33	=33
(8b-	-lei-
4dd)	|
8cc	-ne
4b-	ha-
4a-}	-ben}
=34	=34
{4g	{sei-
4b-	-ne
[2ee-	Won-
=35	=35
8ee-]	|
8g	-ne,
8.b-	sei-
16d	-ne
2e-}	Pein!}
*-	*-
